svgs/duotone/envelope-open.svg

<svg xmlns="http://www.w3.org/2000/svg" viewBox="0 0 512 512"><!--! Font Awesome Pro 6.3.0 by @fontawesome - https://fontawesome.com License - https://fontawesome.com/license (Commercial License) Copyright 2023 Fonticons, Inc. --><defs><style>.fa-secondary{opacity:.4}</style></defs><path class="fa-primary" d="M493.6 163c-24.88-19.62-45.5-35.37-164.3-121.6C312.7 29.21 279.7 0 256.4 0H255.6C232.3 0 199.3 29.21 182.6 41.38c-118.8 86.25-139.4 101.1-164.3 121.6C6.75 172 0 186 0 200.8v263.2C0 490.5 21.49 512 48 512h416c26.51 0 48-21.49 48-47.1V200.8C512 186 505.3 172 493.6 163zM303.2 367.5C289.1 378.5 272.5 384 256 384s-33.06-5.484-47.16-16.47L64 254.9V208.5c21.16-16.59 46.48-35.66 156.4-115.5c3.18-2.328 6.891-5.187 10.98-8.353C236.9 80.44 247.8 71.97 256 66.84c8.207 5.131 19.14 13.6 24.61 17.84c4.09 3.166 7.801 6.027 11.15 8.478C400.9 172.5 426.6 191.7 448 208.5v46.32L303.2 367.5z"/><path class="fa-secondary" d="M448 208.5v46.32l-144.8 112.7C289.1 378.5 272.5 384 256 384s-33.06-5.484-47.16-16.47L64 254.9V208.5c21.16-16.59 46.48-35.66 156.4-115.5c3.18-2.328 6.891-5.187 10.98-8.353C236.9 80.44 247.8 71.97 256 66.84c8.207 5.131 19.14 13.6 24.61 17.84c4.09 3.166 7.801 6.027 11.15 8.478C400.9 172.5 426.6 191.7 448 208.5z"/></svg>

<svg xmlns="http://www.w3.org/2000/svg" viewBox="0 0 512 512"><!-- Font Awesome Pro 6.0.0-alpha2 by @fontawesome - https://fontawesome.com License - https://fontawesome.com/license (Commercial License) --><defs><style>.fa-secondary{opacity:.4}</style></defs><path d="M448 208.539V254.859L303.156 367.532C289.062 378.517 272.531 384.001 256 384.001S222.938 378.517 208.844 367.532L64 254.859V208.539C85.16 191.952 110.477 172.88 220.406 93.038C223.586 90.71 227.297 87.851 231.383 84.685C236.863 80.441 247.793 71.974 256 66.843C264.207 71.974 275.137 80.439 280.613 84.683C284.703 87.849 288.414 90.71 291.766 93.161C400.945 172.46 426.562 191.743 448 208.539Z" class="fa-secondary"/><path d="M493.625 163.003C468.75 143.378 448.125 127.628 329.375 41.379C312.73 29.207 279.672 0 256.441 0C256.293 0 256.145 0.002 256 0.004C255.852 0.002 255.707 0 255.559 0C232.328 0 199.27 29.207 182.625 41.379C63.875 127.628 43.25 143.378 18.375 163.003C6.75 172.003 0 186.003 0 200.752V464C0 490.51 21.492 512 48 512H464C490.508 512 512 490.51 512 464V200.752C512 186.003 505.25 172.003 493.625 163.003ZM303.156 367.532C289.062 378.517 272.531 384.001 256 384.001S222.938 378.517 208.844 367.532L64 254.859V208.539C85.16 191.952 110.477 172.88 220.406 93.038C223.586 90.71 227.297 87.851 231.383 84.685C236.863 80.441 247.793 71.974 256 66.843C264.207 71.974 275.137 80.439 280.613 84.683C284.703 87.849 288.414 90.71 291.766 93.161C400.945 172.46 426.562 191.743 448 208.539V254.859L303.156 367.532Z" class="fa-primary"/></svg>
